!! 00000] TT[WS
!!!OTL: Yongbuneng zhu niangjia
!!!ARE: Asia, China, Shanxi Yuanping
!! Ethnic Group: Han
!! WII, 165
!!!SCT: J0649
!!!YEM: Copyright 1995, estate of Helmut Schaffrath.
**kern
*ICvox
*Ivox
*M2/4
*k[f#]
*G:
{8b
16b
16a
8g
8g
=1
8a
16a
16e
8d
8d
=2
8e
8g
8a
8a
=3
8a
8dd
8a
8a
=4
16g
16e
8d
8d
8r}
=5
{16b
16b
16b
16a
8g
8g
=6
16a
16a
16a
16e
8d
8d
=7
8e
8g
8a
8a
=8
8.dd
16e
8g
8g
=9
16g
16e
8e
8d
8r}
=10
{8dd
8ee
4dd
=11
8gg
8ee
4dd
=12
8dd
8g
8a
8b
=13
8dd
8b
8a
16g
16e
=14
2d}
==
!!!AGN: Xiaodiao. Qingge, Aisu
!!!ONB: ESAC (Essen Associative Code) Database: CHINA
!!!AMT: simple duple
!!!AIN: vox
!!!EED: Helmut Schaffrath
!!!EEV: 1.0
*-
